2 Export/Icons/Rounded/Create New Folder.svg

<svg xmlns="http://www.w3.org/2000/svg" xmlns:xlink="http://www.w3.org/1999/xlink" width="24" height="24" viewBox="0 0 24 24">
  <defs>
    <path id="create-new-folder-a" d="M20 6h-8l-1.41-1.41C10.21 4.21 9.7 4 9.17 4H4c-1.11 0-1.99.89-1.99 2L2 18c0 1.11.89 2 2 2h16c1.1 0 2-.9 2-2V8c0-1.1-.9-2-2-2zm-2 8h-2v2c0 .55-.45 1-1 1s-1-.45-1-1v-2h-2c-.55 0-1-.45-1-1s.45-1 1-1h2v-2c0-.55.45-1 1-1s1 .45 1 1v2h2c.55 0 1 .45 1 1s-.45 1-1 1z"/>
  </defs>
  <g fill="none" fill-rule="evenodd">
    <polygon points="0 0 24 0 24 24 0 24"/>
    <mask id="create-new-folder-b" fill="#fff">
      <use xlink:href="#create-new-folder-a"/>
    </mask>
    <use fill="#000" xlink:href="#create-new-folder-a"/>
    <g fill="#000" mask="url(#create-new-folder-b)">
      <rect width="24" height="24"/>
    </g>
  </g>
</svg>

<svg xmlns="http://www.w3.org/2000/svg" xmlns:xlink="http://www.w3.org/1999/xlink" width="24" height="24" viewBox="0 0 24 24">
  <defs>
    <path id="create-new-folder-a" d="M20,6 L12,6 L10.59,4.59 C10.21,4.21 9.7,4 9.17,4 L4,4 C2.89,4 2.01,4.89 2.01,6 L2,18 C2,19.11 2.89,20 4,20 L20,20 C21.1,20 22,19.1 22,18 L22,8 C22,6.9 21.1,6 20,6 Z M18,14 L16,14 L16,16 C16,16.55 15.55,17 15,17 C14.45,17 14,16.55 14,16 L14,14 L12,14 C11.45,14 11,13.55 11,13 C11,12.45 11.45,12 12,12 L14,12 L14,10 C14,9.45 14.45,9 15,9 C15.55,9 16,9.45 16,10 L16,12 L18,12 C18.55,12 19,12.45 19,13 C19,13.55 18.55,14 18,14 Z"/>
  </defs>
  <g fill="none" fill-rule="evenodd">
    <polygon points="0 0 24 0 24 24 0 24"/>
    <mask id="create-new-folder-b" fill="#fff">
      <use xlink:href="#create-new-folder-a"/>
    </mask>
    <use fill="#000" xlink:href="#create-new-folder-a"/>
    <g fill="#000" mask="url(#create-new-folder-b)">
      <rect width="24" height="24"/>
    </g>
  </g>
</svg>
